Adwaita++/mimetypes/16/podcast.svg

<svg height="16" width="16" xmlns="http://www.w3.org/2000/svg">
  <path d="m2 2v1c0 .55016.45347 1 1 1 4.97056 0 9 4.02944 9 9 0 .55016.45347 1 1 1h1v-1c0-6.07513-4.92487-11-11-11zm0 4v1c0 .55016.45347 1 1 1 2.76143 0 5 2.23857 5 5 0 .55016.45347 1 1 1h1v-1c0-3.866-3.134-7-7-7zm2 4c-1.1045703 0-2 .895453-2 2s.8954297 2 2 2 2-.895453 2-2-.8954297-2-2-2z" fill="#474747"/>
</svg>

<svg xmlns="http://www.w3.org/2000/svg" width="16" height="16" version="1.1">
 <g transform="translate(-781,238.99987)" style="fill:#474747">
  <path d="M 2 2 L 2 3 C 2 3.55016 2.45347 4 3 4 C 7.97056 4 12 8.02944 12 13 C 12 13.55016 12.45347 14 13 14 L 14 14 L 14 13 C 14 6.92487 9.07513 2 3 2 L 2 2 z M 2 6 L 2 7 C 2 7.55016 2.45347 8 3 8 C 5.76143 8 8 10.23857 8 13 C 8 13.55016 8.45347 14 9 14 L 10 14 L 10 13 C 10 9.134 6.866 6 3 6 L 2 6 z M 4 10 C 2.8954297 10 2 10.895453 2 12 C 2 13.104547 2.8954297 14 4 14 C 5.1045703 14 6 13.104547 6 12 C 6 10.895453 5.1045703 10 4 10 z" transform="translate(781,-238.99987)" style="fill:#474747"/>
 </g>
</svg>
